public/gliwicka111w.svg

<?xml version="1.0" encoding="UTF-8" standalone="no"?>
<!DOCTYPE svg PUBLIC "-//W3C//DTD SVG 1.1//EN" "http://www.w3.org/Graphics/SVG/1.1/DTD/svg11.dtd">
<svg width="100%" height="100%" viewBox="0 0 1140 260" version="1.1" xmlns="http://www.w3.org/2000/svg" xmlns:xlink="http://www.w3.org/1999/xlink" xml:space="preserve" xmlns:serif="http://www.serif.com/" style="fill-rule:evenodd;clip-rule:evenodd;stroke-linejoin:round;stroke-miterlimit:2;">
    <g transform="matrix(1.33333,0,0,1.33333,-123.704,-543.073)">
        <path d="M945.765,407.306l0.578,0.015c0.806,1.334 0.708,2.208 0.701,3.925c-0.084,20.279 -0.058,40.652 -0.046,60.922l0.003,129.756c-27.262,0.408 -55.224,0.104 -82.53,0.103l-149.235,-0.012c-0.313,-4.01 -2.071,-13.048 -3.051,-17.022l212.19,-0.038l6.557,-0.022c0.387,-18.287 0.079,-37.471 0.079,-55.845l0.002,-104.601l-231.954,0.002l-0.007,-17.082c81.729,-0.357 165.128,1.054 246.713,-0.101Z" style="fill:white;fill-rule:nonzero;"/>
    </g>
    <g transform="matrix(1.33333,0,0,1.33333,-123.704,-543.073)">
        <path d="M295.695,450.92c6.157,0.347 14.725,0.104 21.065,0.117c0.588,6.549 2.518,16.918 3.603,23.636l8.464,50.918c3.271,-15.793 6.627,-31.569 10.069,-47.326c1.557,-7.218 4.745,-20.19 5.459,-27.199c5.722,-0.096 11.665,-0.021 17.405,-0.027c0.931,3.754 1.767,7.696 2.533,11.488c4.279,21.195 9.98,42.467 13.616,63.771c2.109,-10.496 3.86,-22.305 5.647,-32.948c2.452,-14.051 4.75,-28.127 6.896,-42.228c6.38,-0.302 14.326,-0.085 20.826,-0.074c-1.705,5.755 -4.06,19.215 -5.401,25.575c-5.546,27.345 -10.775,56.282 -17.199,83.359c-6.511,-0.055 -12.95,-0.162 -19.458,0.096c-1.147,-3.705 -2.187,-7.815 -2.919,-11.631c-3.767,-19.646 -9.947,-39.882 -13.063,-59.56c-3.27,15.331 -6.66,30.637 -10.171,45.915c-1.722,7.684 -4.139,17.497 -5.354,25.16c-6.67,-0.051 -13.113,-0.102 -19.781,0.109l-22.237,-109.151Z" style="fill:white;fill-rule:nonzero;"/>
    </g>
    <g transform="matrix(1.33333,0,0,1.33333,-123.704,-543.073)">
        <path d="M126.629,449.195c8.975,-0.782 20.962,1.714 27.858,7.945c8.131,7.346 10.283,16.414 11.071,26.923l-19.142,-0.011c-1.939,-8.041 -3.906,-15.878 -13.593,-17.144c-12.034,-1.572 -18.897,5.77 -19.647,17.339c-0.347,8.326 -0.194,16.544 -0.198,24.917c-0.004,9.298 -1.211,22.223 4.982,29.851c5.009,6.168 17.634,6.887 23.257,1.283c5.725,-5.705 5.238,-14.383 5.338,-21.855l-18.553,-0.082c0.278,-3.618 -0.348,-15.54 0.651,-17.305l37.362,-0.054c0.459,4.477 0.293,9.238 0.355,13.762c0.166,12.142 -0.229,24.838 -7.899,34.932c-5.684,7.482 -14.525,10.902 -23.599,11.881c-9.866,1.064 -21.624,-0.707 -29.52,-7.137c-7.756,-6.317 -11.168,-16.222 -12.02,-25.898c-0.602,-6.845 -0.594,-15.524 -0.515,-22.531c0.17,-15.026 -1.726,-33.348 8.463,-45.681c6.758,-8.181 15.468,-10.119 25.349,-11.135Z" style="fill:white;fill-rule:nonzero;"/>
    </g>
    <g transform="matrix(1.33333,0,0,1.33333,-123.704,-543.073)">
        <path d="M602.339,451.03l24.081,0.009c-3.346,3.937 -9.355,13.335 -12.418,17.881l-21.54,31.829l22.888,37.504c4.473,6.948 8.913,14.562 13.21,21.664l-23.788,0.106c-7.779,-14.273 -17.189,-28.84 -25.203,-43.367c-1.001,1.744 -4.599,6.458 -4.804,7.857c-1.472,10.076 -0.761,25.05 -0.745,35.451c-6.881,-0.061 -13.762,-0.053 -20.642,0.025c0.781,-35.148 0.061,-73.57 0.037,-108.96l20.533,-0.01c0.442,14.121 0.077,30.092 0.074,44.355c6.941,-13.129 19.76,-31.733 28.317,-44.344Z" style="fill:white;fill-rule:nonzero;"/>
    </g>
    <g transform="matrix(1.33333,0,0,1.33333,-123.704,-543.073)">
        <path d="M663.36,451.054l20.321,-0.021c10.365,34.925 20.204,73.587 29.621,108.882c-6.79,-0.056 -13.581,-0.001 -20.369,0.166c-1.648,-6.926 -3.269,-14.328 -5.296,-21.107c-1.432,-1.114 -1.246,-0.735 -3.512,-0.797c-8.029,0.175 -16.628,-0.016 -24.699,-0.056c-0.739,5.639 -3.691,15.507 -5.007,21.871l-20.653,0.016c3.222,-9.321 7.732,-28.061 10.384,-38.134c6.153,-23.365 13.397,-47.484 19.21,-70.82Zm0.072,70.796c3.52,-0.091 7.169,-0.238 10.678,-0.263c2.522,0.048 7.129,0.022 9.445,0.306c-1.067,-4.537 -9.298,-38.851 -10.254,-39.984c-2.971,12.743 -7.279,27.568 -9.869,39.941Z" style="fill:white;fill-rule:nonzero;"/>
    </g>
    <g transform="matrix(1.33333,0,0,1.33333,-123.704,-543.073)">
        <path d="M496.891,449.195c23.086,-1.189 36.842,11.834 37.387,34.831l-19.15,-0.001c-0.072,-2.775 -0.547,-5.439 -1.538,-8.041c-1.437,-3.773 -3.977,-6.317 -7.687,-7.898c-3.908,-1.665 -8.547,-2.292 -12.54,-0.547c-4.088,1.787 -6.963,5.526 -8.481,9.635c-3.102,8.399 -3.219,50.687 0.743,58.431c1.865,3.643 4.853,6.683 8.864,7.82c4.371,1.238 9.745,0.741 13.629,-1.686c5.318,-3.324 6.634,-8.598 7.796,-14.336l0.984,-0.374c6.074,-0.103 12.149,-0.118 18.224,-0.048c-0.138,17.804 -10.401,31.96 -27.834,34.19c-41.025,4.686 -46.016,-22.968 -44.667,-56.304c1.174,-29.009 -2.461,-51.203 34.27,-55.672Z" style="fill:white;fill-rule:nonzero;"/>
    </g>
    <g transform="matrix(1.33333,0,0,1.33333,-123.704,-543.073)">
        <path d="M187.104,451.068c6.366,-0.19 13.547,-0.033 19.977,-0.035l-0.014,90.936l36.018,0.07c-0.097,5.91 -0.034,11.997 -0.041,17.922l-56.032,0.013c-0.007,-36.125 -0.352,-72.827 0.092,-108.906Z" style="fill:white;fill-rule:nonzero;"/>
    </g>
    <g transform="matrix(1.33333,0,0,1.33333,-123.704,-543.073)">
        <path d="M872.086,450.977c6.968,0.099 13.937,0.102 20.905,0.009l0.043,108.971l-21.356,0.078c0.391,-9.246 0.118,-20.134 0.116,-29.495c0.06,-15.833 0.006,-31.665 -0.162,-47.497l-16.966,-0.067c0.331,-5.602 -0.088,-12.773 0.148,-18.886c12.29,-0.099 17.752,1.707 17.272,-13.113Z" style="fill:white;fill-rule:nonzero;"/>
    </g>
    <g transform="matrix(1.33333,0,0,1.33333,-123.704,-543.073)">
        <path d="M812.112,450.939c6.678,0.209 14.096,0.081 20.835,0.112l0.054,108.928l-18.126,-0.043c-1.789,0.123 -1.272,0.354 -2.698,-0.299c-0.604,-6.382 -0.183,-19.285 -0.179,-26.197l0.027,-50.406l-16.902,-0.022c0.545,-4.327 0.353,-14.134 0.373,-18.931c12.996,0.271 16.478,1.505 16.616,-13.142Z" style="fill:white;fill-rule:nonzero;"/>
    </g>
    <g transform="matrix(1.33333,0,0,1.33333,-123.704,-543.073)">
        <path d="M753.66,451.053l20.446,-0.023c-0.396,11.859 -0.079,25.705 -0.082,37.741l-0.002,71.187l-18.147,-0.004c-0.695,0.025 -1.346,-0.046 -2.044,-0.093c-0.813,-1.861 -0.39,-69.193 -0.388,-76.869l-16.456,0.005l-0.003,-18.952c10.6,0.28 18.541,0.761 16.676,-12.992Z" style="fill:white;fill-rule:nonzero;"/>
    </g>
    <g transform="matrix(1.33333,0,0,1.33333,-123.704,-543.073)">
        <path d="M424.043,451.03l20.45,0.063c-0.483,11.025 -0.034,25.581 -0.025,36.825l-0.007,72.071c-6.684,-0.145 -13.726,-0.053 -20.44,-0.075l0.022,-108.884Z" style="fill:white;fill-rule:nonzero;"/>
    </g>
    <g transform="matrix(1.33333,0,0,1.33333,-123.704,-543.073)">
        <path d="M261.025,451.053l19.967,-0.019l0.029,108.915c-6.666,-0.05 -13.332,-0.018 -19.996,0.096l0,-108.992Z" style="fill:white;fill-rule:nonzero;"/>
    </g>
</svg>

<?xml version="1.0" encoding="UTF-8" standalone="no"?>
<!DOCTYPE svg PUBLIC "-//W3C//DTD SVG 1.1//EN" "http://www.w3.org/Graphics/SVG/1.1/DTD/svg11.dtd">
<svg width="100%" height="100%" viewBox="0 0 1140 260" version="1.1" xmlns="http://www.w3.org/2000/svg" xmlns:xlink="http://www.w3.org/1999/xlink" xml:space="preserve" xmlns:serif="http://www.serif.com/" style="fill-rule:evenodd;clip-rule:evenodd;stroke-linejoin:round;stroke-miterlimit:2;">
    <g transform="matrix(1.33333,0,0,1.33333,-123.704,-543.073)">
        <path d="M945.765,407.306L946.343,407.321C947.149,408.655 947.051,409.529 947.044,411.246C946.96,431.525 946.986,451.898 946.998,472.168L947.001,601.924C919.739,602.332 891.777,602.028 864.471,602.027L715.236,602.015C714.923,598.005 713.165,588.967 712.185,584.993L924.375,584.955L930.932,584.933C931.319,566.646 931.011,547.462 931.011,529.088L931.013,424.487L699.059,424.489L699.052,407.407C780.781,407.05 864.18,408.461 945.765,407.306Z" style="fill:white;fill-rule:nonzero;"/>
    </g>
    <g transform="matrix(1.33333,0,0,1.33333,-123.704,-543.073)">
        <path d="M295.695,450.92C301.852,451.267 310.42,451.024 316.76,451.037C317.348,457.586 319.278,467.955 320.363,474.673L328.827,525.591C332.098,509.798 335.454,494.022 338.896,478.265C340.453,471.047 343.641,458.075 344.355,451.066C350.077,450.97 356.02,451.045 361.76,451.039C362.691,454.793 363.527,458.735 364.293,462.527C368.572,483.722 374.273,504.994 377.909,526.298C380.018,515.802 381.769,503.993 383.556,493.35C386.008,479.299 388.306,465.223 390.452,451.122C396.832,450.82 404.778,451.037 411.278,451.048C409.573,456.803 407.218,470.263 405.877,476.623C400.331,503.968 395.102,532.905 388.678,559.982C382.167,559.927 375.728,559.82 369.22,560.078C368.073,556.373 367.033,552.263 366.301,548.447C362.534,528.801 356.354,508.565 353.238,488.887C349.968,504.218 346.578,519.524 343.067,534.802C341.345,542.486 338.928,552.299 337.713,559.962C331.043,559.911 324.6,559.86 317.932,560.071L295.695,450.92Z" style="fill:white;fill-rule:nonzero;"/>
    </g>
    <g transform="matrix(1.33333,0,0,1.33333,-123.704,-543.073)">
        <path d="M126.629,449.195C135.604,448.413 147.591,450.909 154.487,457.14C162.618,464.486 164.77,473.554 165.558,484.063L146.416,484.052C144.477,476.011 142.51,468.174 132.823,466.908C120.789,465.336 113.926,472.678 113.176,484.247C112.829,492.573 112.982,500.791 112.978,509.164C112.974,518.462 111.767,531.387 117.96,539.015C122.969,545.183 135.594,545.902 141.217,540.298C146.942,534.593 146.455,525.915 146.555,518.443L128.002,518.361C128.28,514.743 127.654,502.821 128.653,501.056L166.015,501.002C166.474,505.479 166.308,510.24 166.37,514.764C166.536,526.906 166.141,539.602 158.471,549.696C152.787,557.178 143.946,560.598 134.872,561.577C125.006,562.641 113.248,560.87 105.352,554.44C97.596,548.123 94.184,538.218 93.332,528.542C92.73,521.697 92.738,513.018 92.817,506.011C92.987,490.985 91.091,472.663 101.28,460.33C108.038,452.149 116.748,450.211 126.629,449.195Z" style="fill:white;fill-rule:nonzero;"/>
    </g>
    <g transform="matrix(1.33333,0,0,1.33333,-123.704,-543.073)">
        <path d="M602.339,451.03L626.42,451.039C623.074,454.976 617.065,464.374 614.002,468.92L592.462,500.749L615.35,538.253C619.823,545.201 624.263,552.815 628.56,559.917L604.772,560.023C596.993,545.75 587.583,531.183 579.569,516.656C578.568,518.4 574.97,523.114 574.765,524.513C573.293,534.589 574.004,549.563 574.02,559.964C567.139,559.903 560.258,559.911 553.378,559.989C554.159,524.841 553.439,486.419 553.415,451.029L573.948,451.019C574.39,465.14 574.025,481.111 574.022,495.374C580.963,482.245 593.782,463.641 602.339,451.03Z" style="fill:white;fill-rule:nonzero;"/>
    </g>
    <g transform="matrix(1.33333,0,0,1.33333,-123.704,-543.073)">
        <path d="M663.36,451.054L683.681,451.033C694.046,485.958 703.885,524.62 713.302,559.915C706.512,559.859 699.721,559.914 692.933,560.081C691.285,553.155 689.664,545.753 687.637,538.974C686.205,537.86 686.391,538.239 684.125,538.177C676.096,538.352 667.497,538.161 659.426,538.121C658.687,543.76 655.735,553.628 654.419,559.992L633.766,560.008C636.988,550.687 641.498,531.947 644.15,521.874C650.303,498.509 657.547,474.39 663.36,451.054ZM663.432,521.85C666.952,521.759 670.601,521.612 674.11,521.587C676.632,521.635 681.239,521.609 683.555,521.893C682.488,517.356 674.257,483.042 673.301,481.909C670.33,494.652 666.022,509.477 663.432,521.85Z" style="fill:white;fill-rule:nonzero;"/>
    </g>
    <g transform="matrix(1.33333,0,0,1.33333,-123.704,-543.073)">
        <path d="M496.891,449.195C519.977,448.006 533.733,461.029 534.278,484.026L515.128,484.025C515.056,481.25 514.581,478.586 513.59,475.984C512.153,472.211 509.613,469.667 505.903,468.086C501.995,466.421 497.356,465.794 493.363,467.539C489.275,469.326 486.4,473.065 484.882,477.174C481.78,485.573 481.663,527.861 485.625,535.605C487.49,539.248 490.478,542.288 494.489,543.425C498.86,544.663 504.234,544.166 508.118,541.739C513.436,538.415 514.752,533.141 515.914,527.403L516.898,527.029C522.972,526.926 529.047,526.911 535.122,526.981C534.984,544.785 524.721,558.941 507.288,561.171C466.263,565.857 461.272,538.203 462.621,504.867C463.795,475.858 460.16,453.664 496.891,449.195Z" style="fill:white;fill-rule:nonzero;"/>
    </g>
    <g transform="matrix(1.33333,0,0,1.33333,-123.704,-543.073)">
        <path d="M187.104,451.068C193.47,450.878 200.651,451.035 207.081,451.033L207.067,541.969L243.085,542.039C242.988,547.949 243.051,554.036 243.044,559.961L187.012,559.974C187.005,523.849 186.66,487.147 187.104,451.068Z" style="fill:white;fill-rule:nonzero;"/>
    </g>
    <g transform="matrix(1.33333,0,0,1.33333,-123.704,-543.073)">
        <path d="M872.086,450.977C879.054,451.076 886.023,451.079 892.991,450.986L893.034,559.957L871.678,560.035C872.069,550.789 871.796,539.901 871.794,530.54C871.854,514.707 871.8,498.875 871.632,483.043L854.666,482.976C854.997,477.374 854.578,470.203 854.814,464.09C867.104,463.991 872.566,465.797 872.086,450.977Z" style="fill:white;fill-rule:nonzero;"/>
    </g>
    <g transform="matrix(1.33333,0,0,1.33333,-123.704,-543.073)">
        <path d="M812.112,450.939C818.79,451.148 826.208,451.02 832.947,451.051L833.001,559.979L814.875,559.936C813.086,560.059 813.603,560.29 812.177,559.637C811.573,553.255 811.994,540.352 811.998,533.44L812.025,483.034L795.123,483.012C795.668,478.685 795.476,468.878 795.496,464.081C808.492,464.352 811.974,465.586 812.112,450.939Z" style="fill:white;fill-rule:nonzero;"/>
    </g>
    <g transform="matrix(1.33333,0,0,1.33333,-123.704,-543.073)">
        <path d="M753.66,451.053L774.106,451.03C773.71,462.889 774.027,476.735 774.024,488.771L774.022,559.958L755.875,559.954C755.18,559.979 754.529,559.908 753.831,559.861C753.018,558 753.441,490.668 753.443,482.992L736.987,482.997L736.984,464.045C747.584,464.325 755.525,464.806 753.66,451.053Z" style="fill:white;fill-rule:nonzero;"/>
    </g>
    <g transform="matrix(1.33333,0,0,1.33333,-123.704,-543.073)">
        <path d="M424.043,451.03L444.493,451.093C444.01,462.118 444.459,476.674 444.468,487.918L444.461,559.989C437.777,559.844 430.735,559.936 424.021,559.914L424.043,451.03Z" style="fill:white;fill-rule:nonzero;"/>
    </g>
    <g transform="matrix(1.33333,0,0,1.33333,-123.704,-543.073)">
        <path d="M261.025,451.053L280.992,451.034L281.021,559.949C274.355,559.899 267.689,559.931 261.025,560.045L261.025,451.053Z" style="fill:white;fill-rule:nonzero;"/>
    </g>
</svg>
